X:017
T:Curly-headed Ploughboy
M:4/4
L:1/8
K:G
d3c | BcdB GABG | E2 E2 D2 G2 | FGAB c2 B2 | BcdB A2 dc |
BcdB GABG | E2 E2 D2 G2 | FGAB c2 A2 | G2 G2 :|
K:D
z2 d2 | c2 c2 cABc | d2 de d4 | c2 c2 cABc | d3 e d4 |
c2 c2 cABc | d2 A2 B2 G2 | F2 D2 E2 C2 | D4 :|
